icons/evolvere-blue-folders-flat-vivid-dark-fallback/apps/64/libreoffice-draw.svg

<?xml version="1.0" encoding="UTF-8" standalone="no"?>
<!-- Created with Inkscape (http://www.inkscape.org/) -->

<svg
   xmlns:dc="http://purl.org/dc/elements/1.1/"
   xmlns:cc="http://creativecommons.org/ns#"
   xmlns:rdf="http://www.w3.org/1999/02/22-rdf-syntax-ns#"
   xmlns:svg="http://www.w3.org/2000/svg"
   xmlns="http://www.w3.org/2000/svg"
   xmlns:sodipodi="http://sodipodi.sourceforge.net/DTD/sodipodi-0.dtd"
   xmlns:inkscape="http://www.inkscape.org/namespaces/inkscape"
   width="64"
   height="64"
   id="svg13094"
   version="1.1"
   inkscape:version="0.91+devel r"
   sodipodi:docname="libreoffice-draw.svg">
  <sodipodi:namedview
     id="base"
     pagecolor="#ffffff"
     bordercolor="#666666"
     borderopacity="1.0"
     inkscape:pageopacity="0"
     inkscape:pageshadow="2"
     inkscape:zoom="11.313709"
     inkscape:cx="29.023022"
     inkscape:cy="30.51137"
     inkscape:document-units="px"
     inkscape:current-layer="svg13094"
     showgrid="true"
     inkscape:snap-bbox="true"
     inkscape:bbox-paths="true"
     inkscape:bbox-nodes="true"
     inkscape:snap-bbox-edge-midpoints="true"
     inkscape:snap-bbox-midpoints="true"
     inkscape:object-paths="true"
     inkscape:snap-intersection-paths="true"
     inkscape:object-nodes="true"
     inkscape:snap-smooth-nodes="true"
     inkscape:snap-midpoints="true"
     inkscape:snap-object-midpoints="true"
     inkscape:snap-center="true"
     showguides="true"
     inkscape:guide-bbox="true"
     inkscape:window-width="1920"
     inkscape:window-height="1023"
     inkscape:window-x="-10"
     inkscape:window-y="35"
     inkscape:window-maximized="1"
     inkscape:snap-global="true"
     fit-margin-top="0"
     fit-margin-left="0"
     fit-margin-right="0"
     fit-margin-bottom="0"
     showborder="true"
     inkscape:showpageshadow="false"
     inkscape:snap-page="true">
    <inkscape:grid
       type="xygrid"
       id="grid3075"
       empspacing="5"
       visible="true"
       enabled="true"
       snapvisiblegridlinesonly="true"
       originx="0px"
       originy="18px" />
  </sodipodi:namedview>
  <defs
     id="defs13096" />
  <metadata
     id="metadata13099">
    <rdf:RDF>
      <cc:Work
         rdf:about="">
        <dc:format>image/svg+xml</dc:format>
        <dc:type
           rdf:resource="http://purl.org/dc/dcmitype/StillImage" />
        <dc:title></dc:title>
      </cc:Work>
    </rdf:RDF>
  </metadata>
  <path
     inkscape:connector-curvature="0"
     style="color:#000000;fill:#d68e1e;fill-opacity:1;fill-rule:nonzero;stroke:none;stroke-width:2.28571415;marker:none;visibility:visible;display:inline;overflow:visible;enable-background:accumulate"
     d="m 0,4 0,30 0,28 2,2 30,0 30,0 2,-2 L 64,34 64,4 32,4 0,4 z"
     id="path3443" />
  <path
     inkscape:connector-curvature="0"
     style="color:#000000;fill:#ffda48;fill-opacity:1;fill-rule:nonzero;stroke:none;stroke-width:2.28571415000000000;marker:none;visibility:visible;display:inline;overflow:visible;enable-background:accumulate"
     d="M 2,0 0,1 0,4 32,4 64,4 64,1 62,0 32,0 2,0 z"
     id="path3447" />
  <path
     style="fill:#ffe47a;fill-opacity:1;fill-rule:nonzero"
     d="M 0,3 0,6 2,4 Z"
     id="path4298"
     inkscape:connector-curvature="0"
     sodipodi:nodetypes="cccc" />
  <path
     d="M 64,6 62,4 64,3 z"
     id="path3028"
     style="fill:#eab333;fill-opacity:1"
     inkscape:connector-curvature="0" />
  <g
     id="g3043"
     inkscape:export-filename="folder.png"
     inkscape:export-xdpi="90"
     inkscape:export-ydpi="90"
     transform="translate(-0.625,0.082283)" />
  <g
     id="scalable"
     transform="matrix(1.0385892,0,0,1.0385892,1214.7222,1878.8121)"
     inkscape:label="#g3701"
     style="fill:#ffffff" />
  <path
     style="fill:#fff6b8;fill-opacity:0.86046511"
     d="M 8 11 L 8 57 L 56 57 L 56 25 L 42 11 L 8 11 z M 46 11 L 56 21 L 56 11 L 46 11 z M 11 14 L 41 14 L 53 26 L 53 54 L 11 54 L 11 14 z M 21.009766 35 A 1.0001 1.0001 0 0 0 20.417969 35.185547 L 13.417969 40.185547 L 14.582031 41.814453 L 17.667969 39.609375 L 14.142578 45.486328 A 1.0001 1.0001 0 0 0 15.640625 46.767578 L 23.667969 40.078125 L 19.119141 48.525391 A 1.0001 1.0001 0 0 0 20.486328 49.875 L 28.572266 45.382812 L 31.105469 50.447266 L 32.894531 49.552734 L 29.894531 43.552734 A 1.0001 1.0001 0 0 0 28.513672 43.125 L 22.501953 46.464844 L 27.880859 36.474609 A 1.0001 1.0001 0 0 0 26.359375 35.232422 L 18.892578 41.455078 L 21.857422 36.513672 A 1.0001 1.0001 0 0 0 21.009766 35 z "
     id="path3940" />
</svg>

<svg xmlns="http://www.w3.org/2000/svg" viewBox="0 0 64 64"><g color="#000"><path d="m0 4v30 28l2 2h30 30l2-2v-28-30h-32-32" fill="#d68e1e"/><path d="m2 0l-2 1v3h32 32v-3l-2-1h-30-30" fill="#ffda48"/></g><path d="m0 3v3l2-2" fill="#ffe47a"/><path d="m64 6l-2-2 2-1z" fill="#eab333"/><path d="m8 11v46h48v-32l-14-14h-34m38 0l10 10v-10h-10m-35 3h30l12 12v28h-42v-40m10.00977 21a1.0001 1.0001 0 0 0 -.591797 .185547l-7 5 1.164 1.629 3.086-2.205-3.525 5.877a1.0001 1.0001 0 0 0 1.498047 1.28125l8.03-6.689-4.549 8.447a1.0001 1.0001 0 0 0 1.367187 1.349609l8.09-4.492 2.533 5.064 1.789-.895-3-6a1.0001 1.0001 0 0 0 -1.380859 -.427734l-6.01 3.34 5.379-9.99a1.0001 1.0001 0 0 0 -1.521484 -1.242187l-7.467 6.223 2.965-4.941a1.0001 1.0001 0 0 0 -.847656 -1.513672" fill="#fff6b8" fill-opacity=".86"/></svg>
